X: 13
T: Missa Cucu / Credo
N: Derived from Mar1003c-Missa_Cucu-Credo.krn
C: Johannes Martini
%%abc-version 2.0
%%abcx-abcm2ps-target-version 5.9.1 (29 Sep 2008)
%%abc-creator hum2abc beta
%%abcx-conversion-date 2019/02/17 07:19:40
%%abc-edited-by Jesse Rodin
%%abc-edited-by Chris Gage 11-21-2013
%%abcx-initial-encoding-date 2015/03/05/
%%humdrum-veritas 2259135935
%%humdrum-veritas-data 1341531339
%%linebreak <none>
%%barnumbers 0
L: 1/4
M: 3/1
Q: 1/2=120
%%staves [1 2 3 4]
V: 1 clef=treble
V: 2 clef=treble-8
V: 3 clef=treble-8
V: 4 clef=bass
K: C
[V:1] A8G4 | 
[V:2] d8B2c2 | 
[V:3] z12 | 
[V:4] D,8E,4 | 
[V:1] F6E2D4 | 
[V:2] d4D2E2F2G2 | 
[V:3] z12 | 
[V:4] D,6C,2_B,,4 | 
[V:1] C2E4DCB,4 | 
[V:2] A2c4BA^G4 | 
[V:3] z12 | 
[V:4] A,,4C,2D,2E,4 | 
[V:1] A,4z2E2F2G2 | 
[V:2] A4c4d2e2 | 
[V:3] z12 | 
[V:4] z2A,,4A,,2D,2C,2 | 
[V:1] A2B3AA3^G/^F/G2 | 
[V:2] A2d4c2B4 | 
[V:3] z12 | 
[V:4] F,2G,4A,2E,4 | 
[V:1] A12 | 
[V:2] A4z4A4 | 
[V:3] c12 | 
[V:4] A,,12- | 
[V:1] z4z4A4- | 
[V:2] c6d2e4 | 
[V:3] A12- | 
[V:4] A,,12 | 
[V:1] A4F8 | 
[V:2] f4d6c2 | 
[V:3] A12 | 
[V:4] D,12 | 
[V:1] E2G3FEDC2A2- | 
[V:2] e8A4- | 
[V:3] c12- | 
[V:4] C,8F,4- | 
[V:1] A2GFG6E2 | 
[V:2] A4z4e4 | 
[V:3] c12 | 
[V:4] F,4E,4C,4 | 
[V:1] F4E8 | 
[V:2] d4c6Bc | 
[V:3] A12- | 
[V:4] D,4A,,8 | 
[V:1] D6F6 | 
[V:2] d4A8 | 
[V:3] A4F8 | 
[V:4] D,12 | 
[V:1] E6D2D4 | 
[V:2] z4D8 | 
[V:3] G12 | 
[V:4] C,4B,,8 | 
[V:1] CB,C3DE2F2E2 | 
[V:2] E2F2E2A3Bc2 | 
[V:3] A12 | 
[V:4] A,,8D,2C,2 | 
[V:1] A4G2F2E4 | 
[V:2] Ac2de2d3^c^cB | 
[V:3] z12 | 
[V:4] D,2A,,2C,2D,2A,4 | 
[V:1] D4F4G4 | 
[V:2] d8e4 | 
[V:3] z4z4c4 | 
[V:4] D,8C,4 | 
[V:1] A4A2F4F2 | 
[V:2] c4F8 | 
[V:3] A12 | 
[V:4] F,4D,8 | 
[V:1] D8E4- | 
[V:2] G8E4- | 
[V:3] _B8G4 | 
[V:4] G,,8C,4 | 
[V:1] E4C4D4 | 
[V:2] E4A4z4 | 
[V:3] A8D4 | 
[V:4] A,,8_B,,4 | 
[V:1] B,2D3CD2B,4 | 
[V:2] d4f4e2e2- | 
[V:3] G4F2A4G2 | 
[V:4] G,,4D,4E,4 | 
[V:1] A,2C3DE3B,C2 | 
[V:2] edcBA4z2A2 | 
[V:3] A6GFE4 | 
[V:4] A,,12 | 
[V:1] D6C2B,4 | 
[V:2] F2_B3AGFG4 | 
[V:3] D8d4 | 
[V:4] _B,,4G,,8 | 
[V:1] A,4z2A4G2 | 
[V:2] E2A3Bcde4 | 
[V:3] c12 | 
[V:4] A,,8C,4 | 
[V:1] F2EDC4D2F2 | 
[V:2] d4z4A3G/F/ | 
[V:3] A12 | 
[V:4] D,3E,F,4D,2D,2- | 
[V:1] E4A,4z2D2 | 
[V:2] G4F2E2F2G2 | 
[V:3] z12 | 
[V:4] D,2C,2D,2C,2D,2B,,2 | 
[V:1] C2F3E/D/E3DCB, | 
[V:2] A4B2c3BAG | 
[V:3] z12 | 
[V:4] A,,2D,4C,2A,,4 | 
[V:1] A,2B,3A,A,4^G,2 | 
[V:2] F2DF2EE4D2 | 
[V:3] z12 | 
[V:4] D,4C,2A,,2B,,4 | 
[V:1] A,3B,C2D2E2F2 | 
[V:2] E4A8 | 
[V:3] z4z4c4- | 
[V:4] A,,12- | 
[V:1] E2A4^G^FG4 | 
[V:2] e8e4 | 
[V:3] c4B8 | 
[V:4] A,,4E,8 | 
[V:1] A4A2A2F2F2 | 
[V:2] c3de2f2d4 | 
[V:3] A12 | 
[V:4] A,,6D,6 | 
[V:1] E6E2C4 | 
[V:2] B4c3de4 | 
[V:3] G4A8 | 
[V:4] E,4A,,8 | 
[V:1] D2F3EDCD4 | 
[V:2] z2A4A2_B4 | 
[V:3] F12 | 
[V:4] D,8_B,,4 | 
[V:1] E4E6D2 | 
[V:2] G4z4F4- | 
[V:3] E4A8- | 
[V:4] C,4A,,4D,4- | 
[V:1] D2CDE2DCB,4 | 
[V:2] F4E8 | 
[V:3] A8G4 | 
[V:4] D,4A,,4z4 | 
[V:1] A,4z2A2B2d2 | 
[V:2] A6F2G4 | 
[V:3] c4A4d4 | 
[V:4] A,,4C,2D,2B,,4 | 
[V:1] c2A3GFEF4 | 
[V:2] A4c4d2A2- | 
[V:3] e2c4A4d2 | 
[V:4] A,,8D,4 | 
[V:1] E4A2A3G/F/G2 | 
[V:2] AGF4E2F2G2 | 
[V:3] c2A2c4B4 | 
[V:4] A,,4z2C,2D,2E,2 | 
[V:1] A8G2A2- | 
[V:2] E2A3Bc2d2e2 | 
[V:3] A4c4B2A2 | 
[V:4] A,,8z2A,,2- | 
[V:1] A2G2F4G2E2- | 
[V:2] e4d4G4 | 
[V:3] c4A4z2c2- | 
[V:4] A,,B,,C,2D,2F,2E,2C,2 | 
[V:1] E2E2D2F2E3F | 
[V:2] A4F4G4 | 
[V:3] c2c2A4z2c2 | 
[V:4] A,,2C,2D,4C,4 | 
[V:1] G2A4B2c3A- | 
[V:2] E6F2G2A2- | 
[V:3] c4A4z2c2- | 
[V:4] C,2A,,4D,2C,2F,2- | 
[V:1] AG/F/G2F4E4 | 
[V:2] AGE2F4G2GA- | 
[V:3] c2c2A4z2c2 | 
[V:4] F,E,C,2D,4C,4 | 
[V:1] z2E2C2D2E2DC | 
[V:2] AG/F/E2F4E2A2- | 
[V:3] c4A4z4 | 
[V:4] A,,4z4z4 | 
[V:1] B,4A,2zA2GFE | 
[V:2] A2^G2A4z4 | 
[V:3] z12 | 
[V:4] z2E,2C,2D,2E,2D,C, | 
[V:1] D3C/B,/CF3E2DG | 
[V:2] z12 | 
[V:3] z12 | 
[V:4] B,,4A,,z2A,2G,F,E, | 
[V:1] FA3/G/FE2D3CB,2 | 
[V:2] z12 | 
[V:3] z12 | 
[V:4] D,3C,/B,,/C,2F,2E,2D,G, | 
[V:1] A,2z2C2D2B,2A,2 | 
[V:2] z4z2d2d3c/B/ | 
[V:3] z12 | 
[V:4] F,A,2G,/F,/E,2D,2z4 | 
[V:1] A4G2A2F2E2- | 
[V:2] c2d2B2A2zA2G/F/ | 
[V:3] z12 | 
[V:4] z12 | 
[V:1] E2D2z2F2G2E2 | 
[V:2] G2F2A3G/F/E4 | 
[V:3] z12 | 
[V:4] z4D,2D,3C,/B,,/C,2 | 
[V:1] F3E/D/CB,C2D2E2 | 
[V:2] D4z2A2B2c2 | 
[V:3] z12 | 
[V:4] D,2B,,2A,,4z4 | 
[V:1] F2G2A2A2z4 | 
[V:2] d2e2c2d4e2- | 
[V:3] z12 | 
[V:4] D,2C,2F,4G,4 | 
[V:1] z12 | 
[V:2] e2c3AB2G2A2- | 
[V:3] z12 | 
[V:4] A,2z2A,,2G,,2C,4 | 
[V:1] z12 | 
[V:2] A2F2G2AG2F/E/F2 | 
[V:3] z12 | 
[V:4] D,4E,2z2C,2D,2 | 
[V:1] z12 | 
[V:2] E3FG2A3^G^G^F | 
[V:3] z12 | 
[V:4] E,2A,,2E,2C,2B,,4 | 
[V:1] A,3B,CDE2A,2z2 | 
[V:2] A2A3Bcde2A2 | 
[V:3] z4z4c4 | 
[V:4] A,,12- | 
[V:1] A6A2G4 | 
[V:2] c6d2e4 | 
[V:3] A4z4c4 | 
[V:4] A,,8z4 | 
[V:1] F4D2F2E4 | 
[V:2] d3c/B/A2F2G2A2 | 
[V:3] A4z4c4 | 
[V:4] D,8C,4 | 
[V:1] D2C2F2G2E2G2 | 
[V:2] F2z2A2G3FE2 | 
[V:3] A4z4z4 | 
[V:4] D,2F,4E,D,C,4 | 
[V:1] F2A4GFE4 | 
[V:2] D2F2E2A6 | 
[V:3] d4^c8 | 
[V:4] D,4A,,8 | 
[V:1] [M:4/2](3D2E2F2(3G2D2G2- | 
[V:2] A4G4- :
[V:3] d8 :
[V:4] D,4G,,4- :
[V:1] (3G FD4 [I:setbarnb 61]:
[V:2] G4 | 
[V:3] B4 | 
[V:4] G,,4 | 
[V:1] (3:2:1C4/511- | 
[V:2] E4 :
[V:3] A4- :
[V:4] A,,4 :
[V:1] (3:2:5C2F2G2A4F2- [I:setbarnb 62]| 
[V:2] F4z2F2 | 
[V:3] A4c4 | 
[V:4] F,,4F,4 | 
[V:1] (3F2D2F2(3E2G3F | 
[V:2] A2B2c4- :
[V:3] F4G4- :
[V:4] D,4C,4- :
[V:1] (3:2:4E DE3D [I:setbarnb 63]:
[V:2] c4 | 
[V:3] G4 | 
[V:4] C,4 | 
[V:1] (3F2D2F2- | 
[V:2] A3B :
[V:3] F4- :
[V:4] D,2F,2- :
[V:1] (3:2:6F GA4G2E2G2 [I:setbarnb 64]| 
[V:2] c2d4^c2 | 
[V:3] F4G4 | 
[V:4] F,2E,D,E,4 | 
[V:1] [M:3/1]F4E2F3EC2 | 
[V:2] d4c2d3cA2 | 
[V:3] A12 | 
[V:4] D,4A,,2D,4C,2 | 
[V:1] D4C2D2EC2B,/C/ | 
[V:2] _BG2FA4z2A2 | 
[V:3] D4E8 | 
[V:4] _B,,4A,,8 | 
[V:1] D4F4G4 | 
[V:2] B2A2d4B3c- | 
[V:3] D8z4 | 
[V:4] z4D,4E,4 | 
[V:1] A4z4A4- | 
[V:2] cA2G/F/G2A3GF2 | 
[V:3] c8A4 | 
[V:4] F,4E,2F,3E,D,2- | 
[V:1] A4G2E2F2D2 | 
[V:2] E8D2F2 | 
[V:3] z4c4A4 | 
[V:4] D,2C,B,,C,4D,4 | 
[V:1] CE2FG2A3^G/^F/G2 | 
[V:2] E2e4d2e4 | 
[V:3] z2c2B2A2B4 | 
[V:4] A,,4E,2F,2E,4 | 
[V:1] A6GFE3C | 
[V:2] c4A4A4 | 
[V:3] A4d8 | 
[V:4] A,,8z2A,,2 | 
[V:1] D2E4DCB,4 | 
[V:2] z4z4z2e2- | 
[V:3] G8G4 | 
[V:4] B,,2C,4D,2E,4 | 
[V:1] A,8z2A2- | 
[V:2] e6d2f2e2- | 
[V:3] A4z4A3B | 
[V:4] A,,3B,,C,2D,4C,2 | 
[V:1] A4F2G2A2B2 | 
[V:2] e2d2f2e2c2z2 | 
[V:3] c2d4cBA2d2 | 
[V:4] A,,2z2D,2E,2F,2G,2 | 
[V:1] A2c3BA3^GG^F | 
[V:2] c6e6 | 
[V:3] c2e3Ac2B4 | 
[V:4] A,4A,,4E,4 | 
[V:1] A6G2F4 | 
[V:2] c2d2e4d4 | 
[V:3] A4c4A4 | 
[V:4] F,3E,/D,/C,4D,4 | 
[V:1] E8D4 | 
[V:2] G2A3GFEF4 | 
[V:3] c8A4 | 
[V:4] C,2A,,3B,,C,2D,4 | 
[V:1] [C12E12A12] ||  
[V:2] E12 ||  
[V:3] A12 ||  
[V:4] A,,12 ||  
[V:1]  [K:C] [K:clef=treble][M:2/1]A6GF | 
[V:2]  [K:C] [K:clef=treble-8][M:2/1]A8 | 
[V:3]  [K:C] [K:clef=treble-8][M:2/1]z8 | 
[V:4]  [K:C] [K:clef=bass][M:2/1]z8 | 
[V:1] E4D4- | 
[V:2] G8 | 
[V:3] z8 | 
[V:4] z8 | 
[V:1] D4G4 | 
[V:2] F4E4 | 
[V:3] z8 | 
[V:4] z8 | 
[V:1] F4A4- | 
[V:2] D8 | 
[V:3] z8 | 
[V:4] z8 | 
[V:1] A2G2E2F2- | 
[V:2] c6d2- | 
[V:3] z8 | 
[V:4] z8 | 
[V:1] F2EDE4 | 
[V:2] d2cBc2A2- | 
[V:3] z8 | 
[V:4] z8 | 
[V:1] A,4B,4 | 
[V:2] A2^G^F^G4 | 
[V:3] z8 | 
[V:4] z8 | 
[V:1] A,8 | 
[V:2] A4c4 | 
[V:3] z8 | 
[V:4] z8 | 
[V:1] z4G4- | 
[V:2] B8 | 
[V:3] z8 | 
[V:4] z8 | 
[V:1] G2G2G4 | 
[V:2] E8 | 
[V:3] z8 | 
[V:4] z8 | 
[V:1] F4D4 | 
[V:2] A4_B4 | 
[V:3] z8 | 
[V:4] z8 | 
[V:1] E8 | 
[V:2] G4A4- | 
[V:3] z8 | 
[V:4] z8 | 
[V:1] C4D4 | 
[V:2] A4D4- | 
[V:3] z8 | 
[V:4] z8 | 
[V:1] A,2F4E2- | 
[V:2] D4z4 | 
[V:3] z8 | 
[V:4] z8 | 
[V:1] E2DCB,4 | 
[V:2] c4d4 | 
[V:3] z8 | 
[V:4] z8 | 
[V:1] A,6G,2 | 
[V:2] A2f4e2- | 
[V:3] z8 | 
[V:4] z8 | 
[V:1] A,2B,2^G,3^F, | 
[V:2] e2dcB4 | 
[V:3] z8 | 
[V:4] z8 | 
[V:1] A,4z4 | 
[V:2] A6G2 | 
[V:3] z8 | 
[V:4] A,,6B,,2 | 
[V:1] z2D4CB, | 
[V:2] A2B2^G3^F | 
[V:3] z8 | 
[V:4] C,2D,2B,,4 | 
[V:1] C3DE2D2 | 
[V:2] A8 | 
[V:3] z8 | 
[V:4] A,,4z2D,2- | 
[V:1] F4E3F | 
[V:2] z8 | 
[V:3] z8 | 
[V:4] D,2C,B,,C,2D,2 | 
[V:1] G2A4GF | 
[V:2] z8 | 
[V:3] z8 | 
[V:4] E,2D,2F,4 | 
[V:1] G4E4 | 
[V:2] z8 | 
[V:3] z8 | 
[V:4] E,3F,G,2A,2- | 
[V:1] C2D3CB,A, | 
[V:2] z8 | 
[V:3] z8 | 
[V:4] A,2G,F,G,4 | 
[V:1] G,2C4B,2 | 
[V:2] z8 | 
[V:3] z8 | 
[V:4] E,4C,2D,2- | 
[V:1] A,2D4C2- | 
[V:2] z8 | 
[V:3] z8 | 
[V:4] D,C,B,,A,,G,,2A,,2 | 
[V:1] CB,A,4^G,2 | 
[V:2] z4d3e | 
[V:3] z8 | 
[V:4] C,2D,2B,,4 | 
[V:1] A,4z4 | 
[V:2] f2e4dc | 
[V:3] z8 | 
[V:4] A,,2A,3G,F,E, | 
[V:1] A3Bc2B2- | 
[V:2] d4e4 | 
[V:3] z8 | 
[V:4] F,4E,3F, | 
[V:1] B2AGA4 | 
[V:2] d2c3BA2 | 
[V:3] z8 | 
[V:4] G,2A,2F,4 | 
[V:1] B4c2B2- | 
[V:2] G2e4d2- | 
[V:3] z8 | 
[V:4] E,4C,2G,2- | 
[V:1] BAA4^G2 | 
[V:2] d2c2B4 | 
[V:3] z8 | 
[V:4] G,2A,2E,4 | 
[V:1] (3:2:2A8E4 | 
[V:2] A8 | 
[V:3] z8 | 
[V:4] A,,8- | 
[V:1] (3A4G4E4 | 
[V:2] c8 | 
[V:3] z8 | 
[V:4] (3A,,4z4C,4 | 
[V:1] (3:2:4F4D4C2D2 | 
[V:2] A8 | 
[V:3] z8 | 
[V:4] (3:2:1D,4F,4(3:2:1E,2 | 
[V:1] (3:2:2E8C4- | 
[V:2] c8 | 
[V:3] z8 | 
[V:4] (3:2:2C,8A,,4- | 
[V:1] (3:2:2C4A,8 | 
[V:2] A8 | 
[V:3] z8 | 
[V:4] (3A,,4C,4D,4 | 
[V:1] (3:2:1z4A4(3:2:1G2 | 
[V:2] c8 | 
[V:3] z8 | 
[V:4] (3:2:1C,4F,4(3:2:1E,2 | 
[V:1] (3:2:5F2E2F4E2G2- | 
[V:2] A6G2 | 
[V:3] z8 | 
[V:4] (3F,4D,4C,4- | 
[V:1] (3G2F2E2(3D CB,4 | 
[V:2] G6FG | 
[V:3] z8 | 
[V:4] (3C,2D,2E,8 | 
[V:1] A,8- | 
[V:2] A8 | 
[V:3] z8 | 
[V:4] (3A,,4D,4C,4 | 
[V:1] A,8 | 
[V:2] z8 | 
[V:3] z8 | 
[V:4] A,,4(3:2:2B,,2C,4 | 
[V:1] z8 | 
[V:2] A8 | 
[V:3] z8 | 
[V:4] D,8- | 
[V:1] z8 | 
[V:2] d8 | 
[V:3] z8 | 
[V:4] D,8 | 
[V:1] z8 | 
[V:2] c4e4- | 
[V:3] z8 | 
[V:4] A,8 | 
[V:1] z8 | 
[V:2] e2dcB4 | 
[V:3] z8 | 
[V:4] ^G,8 | 
[V:1] z8 | 
[V:2] z4e4- | 
[V:3] z8 | 
[V:4] A,8 | 
[V:1] z8 | 
[V:2] e4d4 | 
[V:3] z8 | 
[V:4] G,4F,4- | 
[V:1] z8 | 
[V:2] c8 | 
[V:3] z8 | 
[V:4] F,4E,4- | 
[V:1] z8 | 
[V:2] B8 | 
[V:3] z8 | 
[V:4] E,4D,4 | 
[V:1] z8 | 
[V:2] G4A2c2- | 
[V:3] z8 | 
[V:4] E,4A,,4 | 
[V:1] z8 | 
[V:2] cBA2G2A2- | 
[V:3] z8 | 
[V:4] z4C,4- | 
[V:1] z8 | 
[V:2] A2GFE2F2- | 
[V:3] z8 | 
[V:4] C,2B,,2C,2D,2- | 
[V:1] z8 | 
[V:2] F2G2E4 | 
[V:3] z8 | 
[V:4] D,2C,B,,C,4 | 
[V:1] z8 | 
[V:2] D4z2A2 | 
[V:3] z8 | 
[V:4] D,4F,4 | 
[V:1] z8 | 
[V:2] B2d4c2 | 
[V:3] z8 | 
[V:4] G,4A,4 | 
[V:1] z8 | 
[V:2] B2A4G2 | 
[V:3] z8 | 
[V:4] D,4C,2E,2- | 
[V:1] z8 | 
[V:2] E2A4^G2 | 
[V:3] z8 | 
[V:4] E,2D,C,B,,4 | 
[V:1] z8 | 
[V:2] A4z4 | 
[V:3] z8 | 
[V:4] A,,8 | 
[V:1] z8 | 
[V:2] f4e4 | 
[V:3] z8 | 
[V:4] z2A,4G,2 | 
[V:1] z8 | 
[V:2] c2d2e2f2- | 
[V:3] z8 | 
[V:4] A,2F,2G,2A,2 | 
[V:1] z8 | 
[V:2] fed3^c^cB | 
[V:3] z8 | 
[V:4] D,4E,4 | 
[V:1] z8 | 
[V:2] d8 | 
[V:3] z8 | 
[V:4] D,8- | 
[V:1] z8 | 
[V:2] z2D2F2G2 | 
[V:3] z8 | 
[V:4] D,8 | 
[V:1] z8 | 
[V:2] A4D2F2- | 
[V:3] z8 | 
[V:4] z4D,4- | 
[V:1] z8 | 
[V:2] F2EDE4 | 
[V:3] z8 | 
[V:4] D,2C,B,,C,4 | 
[V:1] z8 | 
[V:2] D4A4- | 
[V:3] z8 | 
[V:4] D,4C,2D,2- | 
[V:1] z8 | 
[V:2] A2B2c4 | 
[V:3] z8 | 
[V:4] D,2C,B,,A,,4 | 
[V:1] z8 | 
[V:2] d2e4A2- | 
[V:3] z8 | 
[V:4] B,,2A,,2C,4 | 
[V:1] z8 | 
[V:2] A2G2c4- | 
[V:3] z8 | 
[V:4] D,2E,4A,,2- | 
[V:1] z8 | 
[V:2] c2B2A2GF | 
[V:3] z8 | 
[V:4] A,,2G,,2C,4- | 
[V:1] z8 | 
[V:2] E2A4^G2 | 
[V:3] z8 | 
[V:4] C,2D,2B,,4 | 
[V:1] z8 | 
[V:2] A8 | 
[V:3] c8- | 
[V:4] A,,8 | 
[V:1] A8 | 
[V:2] F8 | 
[V:3] c8- | 
[V:4] z4A,4 | 
[V:1] A4A4 | 
[V:2] f4f4 | 
[V:3] c8- | 
[V:4] F,4F,4 | 
[V:1] G8 | 
[V:2] e8 | 
[V:3] c8 | 
[V:4] C,8 | 
[V:1] F8 | 
[V:2] d8 | 
[V:3] A8- | 
[V:4] D,8 | 
[V:1] E4F4- | 
[V:2] e4d2c2 | 
[V:3] A8- | 
[V:4] C,4D,2F,2- | 
[V:1] F2EDE4- | 
[V:2] A2GFE4 | 
[V:3] A8- | 
[V:4] F,2F,2C,4 | 
[V:1] E2D2D2C2 | 
[V:2] F8 | 
[V:3] A8 | 
[V:4] D,8 | 
[V:1] E8 | 
[V:2] E8- | 
[V:3] c8- | 
[V:4] A,,8- | 
[V:1] A,8 | 
[V:2] E8 | 
[V:3] c8 | 
[V:4] A,,8 | 
[V:1] z4F4 | 
[V:2] F8 | 
[V:3] A8 | 
[V:4] D,8 | 
[V:1] E4F2G2- | 
[V:2] G4A2G2 | 
[V:3] z8 | 
[V:4] C,8- | 
[V:1] GFEDE4 | 
[V:2] E4G4 | 
[V:3] c8 | 
[V:4] C,8 | 
[V:1] D4F4 | 
[V:2] F8 | 
[V:3] A8- | 
[V:4] D,8 | 
[V:1] E4D2C2 | 
[V:2] z4F4 | 
[V:3] A8 | 
[V:4] C,4D,4 | 
[V:1] B,4A,2C2- | 
[V:2] G4A4 | 
[V:3] z8 | 
[V:4] E,4A,,4 | 
[V:1] C2B,4A,2- | 
[V:2] F3EE4- | 
[V:3] z8 | 
[V:4] D,4C,4 | 
[V:1] A,2^G,^F,G,4 | 
[V:2] E2D2D2C2 | 
[V:3] z8 | 
[V:4] B,,8 | 
[V:1] A,8 | 
[V:2] E8 | 
[V:3] z8 | 
[V:4] A,,8- | 
[V:1] z4A4- | 
[V:2] A6B2 | 
[V:3] c8 | 
[V:4] A,,8- | 
[V:1] A8 | 
[V:2] c2d2e4 | 
[V:3] A8 | 
[V:4] A,,8 | 
[V:1] A4A4- | 
[V:2] A4z2A2- | 
[V:3] c4d4 | 
[V:4] z4D,4- | 
[V:1] A2B2c4 | 
[V:2] A2F2G2A2- | 
[V:3] f4e2c2- | 
[V:4] D,4C,4 | 
[V:1] A4G4 | 
[V:2] A2F2G4 | 
[V:3] c2A2B2c2 | 
[V:4] F,4E,4 | 
[V:1] F2G2A4- | 
[V:2] A8 | 
[V:3] d4A4 | 
[V:4] D,4F,4 | 
[V:1] A2^G2G2^F2 | 
[V:2] e8 | 
[V:3] B8 | 
[V:4] E,8 | 
[V:1] A8 | 
[V:2] z4c4 | 
[V:3] A8- | 
[V:4] A,,8- | 
[V:1] z8 | 
[V:2] A4c4 | 
[V:3] A8 | 
[V:4] A,,8 | 
[V:1] E8 | 
[V:2] A8 | 
[V:3] z4c4 | 
[V:4] A,,8 | 
[V:1] F4E4- | 
[V:2] D4E4 | 
[V:3] A4c4 | 
[V:4] z4A,,4- | 
[V:1] E8 | 
[V:2] C8 | 
[V:3] A8 | 
[V:4] A,,4A,,4 | 
[V:1] D8 | 
[V:2] D8- | 
[V:3] (3:2:2F8D4 | 
[V:4] _B,,8- | 
[V:1] D4D4 | 
[V:2] D8 | 
[V:3] (3:2:2F4G8 | 
[V:4] B,,8 | 
[V:1] C8 | 
[V:2] E8 | 
[V:3] A8- | 
[V:4] A,,8 | 
[V:1] D4E2F2- | 
[V:2] F4E2A2- | 
[V:3] A8- | 
[V:4] z4A,,4 | 
[V:1] F2E2D4 | 
[V:2] AGE2F2G2 | 
[V:3] A8 | 
[V:4] D,2C,2D,4 | 
[V:1] E2C2D2E2- | 
[V:2] A4G4 | 
[V:3] z8 | 
[V:4] A,,4B,,2C,2- | 
[V:1] E2DCB,4 | 
[V:2] c4d4 | 
[V:3] G8 | 
[V:4] C,2B,,A,,G,,4 | 
[V:1] A,8 | 
[V:2] c2A2cde2- | 
[V:3] E8- | 
[V:4] A,,8- | 
[V:1] z8 | 
[V:2] edcBc4 | 
[V:3] E8 | 
[V:4] A,,8 | 
[V:1] D6CB, | 
[V:2] d4B4 | 
[V:3] D4G4 | 
[V:4] _B,,4G,,4 | 
[V:1] C6D2 | 
[V:2] A4c4- | 
[V:3] E4A4- | 
[V:4] A,,6B,,2 | 
[V:1] E2F2G2F2 | 
[V:2] c4B4 | 
[V:3] A4G4- | 
[V:4] C,2D,2E,4 | 
[V:1] E3DD4- | 
[V:2] c4A4- | 
[V:3] G4F4 | 
[V:4] C,4D,4 | 
[V:1] D2^C2C2B,2 | 
[V:2] A4G4 | 
[V:3] E8 | 
[V:4] A,,8 | 
[V:1] D6E2 | 
[V:2] A4F4- | 
[V:3] D8 | 
[V:4] z4D,4- | 
[V:1] F4G4 | 
[V:2] F4E4 | 
[V:3] z8 | 
[V:4] D,4C,4 | 
[V:1] F4E4- | 
[V:2] F4G4 | 
[V:3] z8 | 
[V:4] D,4C,4 | 
[V:1] E4C4- | 
[V:2] A6GF | 
[V:3] c8- | 
[V:4] A,,8- | 
[V:1] C8 | 
[V:2] E8 | 
[V:3] c4A4- | 
[V:4] A,,8 | 
[V:1] A,4z4 | 
[V:2] F8 | 
[V:3] A8 | 
[V:4] D,8 | 
[V:1] E4F4 | 
[V:2] G4F4 | 
[V:3] z8 | 
[V:4] C,4D,4 | 
[V:1] G4A4- | 
[V:2] E2A3Bcd | 
[V:3] c8- | 
[V:4] C,4A,,4 | 
[V:1] A2G2F2ED | 
[V:2] e4d4 | 
[V:3] c4A4- | 
[V:4] C,4D,4 | 
[V:1] E2F3GA2- | 
[V:2] c4A4 | 
[V:3] A8 | 
[V:4] A,4F,4 | 
[V:1] A2^G^FG4 | 
[V:2] B8 | 
[V:3] z8 | 
[V:4] E,2E,3D,B,,2 | 
[V:1] A8 | 
[V:2] A4f4 | 
[V:3] z8 | 
[V:4] C,2D,3E,F,2 | 
[V:1] G4F4 | 
[V:2] e4d2d2- | 
[V:3] c4A4- | 
[V:4] C,4D,4 | 
[V:1] E8 | 
[V:2] d2^cB^c4 | 
[V:3] A4A4 | 
[V:4] A,,8 | 
[V:1] D4z4 | 
[V:2] d4c2A2 | 
[V:3] z8 | 
[V:4] _B,,4A,,2D,2- | 
[V:1] D4G4 | 
[V:2] BAGFE4 | 
[V:3] z4c4 | 
[V:4] D,2B,,2C,4 | 
[V:1] F4E2F2 | 
[V:2] z2D2E2D2 | 
[V:3] A8- | 
[V:4] D,4C,2D,2- | 
[V:1] D4C4 | 
[V:2] F4E4 | 
[V:3] A8 | 
[V:4] D,C,D,2A,,4 | 
[V:1] D2F2E4 | 
[V:2] z2F2G2A2 | 
[V:3] z4c4 | 
[V:4] D,4C,4 | 
[V:1] D4C4 | 
[V:2] F3GA2B2 | 
[V:3] A8 | 
[V:4] D,4A,,4 | 
[V:1] B,4A,4 | 
[V:2] G4A4 | 
[V:3] z4c4 | 
[V:4] E,4A,,4- | 
[V:1] C4z4 | 
[V:2] z4e4- | 
[V:3] A4z4 | 
[V:4] A,,4A,,4 | 
[V:1] z8 | 
[V:2] e2e2e4 | 
[V:3] z8 | 
[V:4] A,6A,2 | 
[V:1] z8 | 
[V:2] c4d4 | 
[V:3] z8 | 
[V:4] A,4D,4- | 
[V:1] z8 | 
[V:2] f4e4- | 
[V:3] z8 | 
[V:4] D,4C,4 | 
[V:1] z8 | 
[V:2] e2d2d4- | 
[V:3] z8 | 
[V:4] D,4F,4 | 
[V:1] z8 | 
[V:2] d2^cB^c4 | 
[V:3] z8 | 
[V:4] E,8 | 
[V:1] z8 | 
[V:2] d4z4 | 
[V:3] z8 | 
[V:4] D,8- | 
[V:1] z8 | 
[V:2] A4A4 | 
[V:3] z8 | 
[V:4] D,8 | 
[V:1] z8 | 
[V:2] c4B4 | 
[V:3] z8 | 
[V:4] z4D,4 | 
[V:1] z8 | 
[V:2] A4d4 | 
[V:3] z8 | 
[V:4] F,4F,4 | 
[V:1] z8 | 
[V:2] c4f4 | 
[V:3] z8 | 
[V:4] E,4D,4 | 
[V:1] z8 | 
[V:2] e4d4- | 
[V:3] z8 | 
[V:4] G,4F,4 | 
[V:1] z8 | 
[V:2] d2cBc4 | 
[V:3] z8 | 
[V:4] _B,4A,4 | 
[V:1] z8 | 
[V:2] z4d4 | 
[V:3] z8 | 
[V:4] G,6F,E, | 
[V:1] z8 | 
[V:2] A4B4 | 
[V:3] z8 | 
[V:4] F,4D,4 | 
[V:1] z8 | 
[V:2] c2A4G2 | 
[V:3] z8 | 
[V:4] A,,4B,,4 | 
[V:1] z8 | 
[V:2] A2GFE4 | 
[V:3] z8 | 
[V:4] C,8 | 
[V:1] z8 | 
[V:2] D4F4 | 
[V:3] z8 | 
[V:4] D,4z2D,2 | 
[V:1] z8 | 
[V:2] G2A4B2 | 
[V:3] z8 | 
[V:4] E,2C,2D,4 | 
[V:1] z8 | 
[V:2] c2d4c2 | 
[V:3] z8 | 
[V:4] A,,2B,,2G,,2A,,2 | 
[V:1] z8 | 
[V:2] dcBAA4- | 
[V:3] z8 | 
[V:4] D,4C,4 | 
[V:1] z8 | 
[V:2] A2^G2^G2^F2 | 
[V:3] z8 | 
[V:4] B,,8 | 
[V:1] [M:3/1]E12- | 
[V:2] [M:3/1]A12- | 
[V:3] [M:3/1]z4z4c4- | 
[V:4] [M:3/1]A,,12- | 
[V:1] E4F8 | 
[V:2] A4z4F4 | 
[V:3] c4A8 | 
[V:4] A,,4D,8 | 
[V:1] E4A8 | 
[V:2] G4A2B2c2d2 | 
[V:3] z4z4c4- | 
[V:4] C,4F,6E,2 | 
[V:1] G4F4A4- | 
[V:2] e4d4c4 | 
[V:3] c4A8 | 
[V:4] C,4D,4F,4- | 
[V:1] A2G2F4E4 | 
[V:2] A4B4c4 | 
[V:3] z4z4c4- | 
[V:4] F,2E,2D,4C,4 | 
[V:1] A6^G2G2^F2 | 
[V:2] e6d2e4 | 
[V:3] c4B8 | 
[V:4] A,,4E,8 | 
[V:1] A8E4 | 
[V:2] c8c4 | 
[V:3] A12 | 
[V:4] A,,6B,,2C,4 | 
[V:1] F4D8 | 
[V:2] A4B4d4 | 
[V:3] F4G8 | 
[V:4] D,4B,,8 | 
[V:1] z4F6E2 | 
[V:2] c12- | 
[V:3] A8E4 | 
[V:4] A,,8C,4- | 
[V:1] E6D2D2C2 | 
[V:2] c4A4B4 | 
[V:3] G4F8 | 
[V:4] C,4D,8 | 
[V:1] E8C4 | 
[V:2] A6G2E4 | 
[V:3] E8A4- | 
[V:4] A,,12 | 
[V:1] D4C4E4 | 
[V:2] F4E8 | 
[V:3] A12- | 
[V:4] D,4A,,4C,4 | 
[V:1] D2C2B,6A,2 | 
[V:2] z4z4e4- | 
[V:3] A4^G8 | 
[V:4] D,4E,8 | 
[V:1] A,4A6A2 | 
[V:2] e2d2c2B2A4 | 
[V:3] A6B2c4 | 
[V:4] A,,8z4 | 
[V:1] A6B2c4- | 
[V:2] A6F2G4 | 
[V:3] d4f4e4- | 
[V:4] D,8C,4 | 
[V:1] c4A8 | 
[V:2] A4A6F2 | 
[V:3] e4c4A4 | 
[V:4] A,,8F,4 | 
[V:1] G4F4E4 | 
[V:2] G4A2B2c4 | 
[V:3] c4d4e4 | 
[V:4] E,4D,4C,4 | 
[V:1] A6^G^FG4 | 
[V:2] d4e8 | 
[V:3] A4B8 | 
[V:4] F,4E,8 | 
[V:1] A8z4 | 
[V:2] c8F4- | 
[V:3] A12- | 
[V:4] A,,8D,4- | 
[V:1] A8G4 | 
[V:2] F4E8 | 
[V:3] A4z4c4 | 
[V:4] D,4C,8 | 
[V:1] F4E6D2 | 
[V:2] F4G4A4 | 
[V:3] A4z4c4 | 
[V:4] D,4C,4A,,4- | 
[V:1] C2B,2A,4z4 | 
[V:2] E4c4A4 | 
[V:3] A4z4c4 | 
[V:4] A,,12 | 
[V:1] C4D4E4 | 
[V:2] F8G4 | 
[V:3] A4z4c4 | 
[V:4] z4D,4C,4 | 
[V:1] F4E6D2 | 
[V:2] F4c6B2 | 
[V:3] A8G4 | 
[V:4] D,4A,,4C,4 | 
[V:1] D6^C2C2B,2 | 
[V:2] A8A4 | 
[V:3] F4E8 | 
[V:4] D,4A,,8 | 
[V:1] D8A,4 | 
[V:2] A8d4- | 
[V:3] D12 | 
[V:4] z4D,8 | 
[V:1] B,4C6B,2 | 
[V:2] d4e8 | 
[V:3] z12 | 
[V:4] B,,4A,,4C,4 | 
[V:1] A,8^G,4 | 
[V:2] d2c2B6AB | 
[V:3] z12 | 
[V:4] D,4E,8 | 
[V:1] [M:2/1]A,8 | 
[V:2] [M:2/1]c4A4 | 
[V:3] [M:2/1]z4c4 | 
[V:4] [M:2/1]A,,8- | 
[V:1] A8 | 
[V:2] z4c4- | 
[V:3] A4z4 | 
[V:4] A,,8 | 
[V:1] G8 | 
[V:2] c2d2e4 | 
[V:3] z4c4 | 
[V:4] C,8 | 
[V:1] F8 | 
[V:2] d4d2A2- | 
[V:3] A4z4 | 
[V:4] D,8 | 
[V:1] E4E4- | 
[V:2] A2G2A4 | 
[V:3] z4c4 | 
[V:4] C,4A,,4 | 
[V:1] E2DCD4 | 
[V:2] F8 | 
[V:3] A4z4 | 
[V:4] D,8 | 
[V:1] E8 | 
[V:2] E8 | 
[V:3] z4c4 | 
[V:4] A,,4C,4 | 
[V:1] F4G4 | 
[V:2] z8 | 
[V:3] A4G4 | 
[V:4] D,4E,4 | 
[V:1] A4A4- | 
[V:2] z8 | 
[V:3] c4d4 | 
[V:4] F,4D,4 | 
[V:1] A2^G2G3^F | 
[V:2] e8 | 
[V:3] B8 | 
[V:4] E,8 | 
[V:1] A8 ||  
[V:2] [c8e8] ||  
[V:3] A8 ||  
[V:4] A,,8 ||  
[V:1]  [K:C] [K:clef=treble][M:2/1]A8 | 
[V:2]  [K:C] [K:clef=treble-8][M:2/1]A6GF | 
[V:3]  [K:C] [K:clef=treble-8][M:2/1]z8 | 
[V:4]  [K:C] [K:clef=bass][M:2/1]A,,6B,,2 | 
[V:1] G4F4- | 
[V:2] E4D4 | 
[V:3] z8 | 
[V:4] C,4D,4- | 
[V:1] F2E2D4 | 
[V:2] F4G4 | 
[V:3] z8 | 
[V:4] D,2C,2B,,4 | 
[V:1] C4E4 | 
[V:2] A3Bc4 | 
[V:3] z8 | 
[V:4] A,,8 | 
[V:1] D4F4 | 
[V:2] d4d4- | 
[V:3] f4d4 | 
[V:4] D,8 | 
[V:1] E8 | 
[V:2] d2^cB^c4 | 
[V:3] z8 | 
[V:4] A,8 | 
[V:1] D4F4 | 
[V:2] d2cBA2d2 | 
[V:3] f4d4 | 
[V:4] D,8 | 
[V:1] G4A4- | 
[V:2] c3Bd4 | 
[V:3] z8 | 
[V:4] E,4D,2F,2- | 
[V:1] A4B4 | 
[V:2] A4z2G2 | 
[V:3] f4d4 | 
[V:4] F,E,F,2G,4 | 
[V:1] A2c4B2 | 
[V:2] A2F2A2B2 | 
[V:3] z8 | 
[V:4] F,6G,2 | 
[V:1] A4G4 | 
[V:2] c2d2B3A/G/ | 
[V:3] f4d4 | 
[V:4] F,2D,2G,2F,E, | 
[V:1] F2D2E4 | 
[V:2] A4G2E2 | 
[V:3] z8 | 
[V:4] D,2F,2C,4 | 
[V:1] D4z4 | 
[V:2] F2A4G2 | 
[V:3] f4d4 | 
[V:4] D,4_B,,4 | 
[V:1] A4G2F2- | 
[V:2] A2GFE2D2 | 
[V:3] z8 | 
[V:4] A,,3B,,C,2D,2- | 
[V:1] FEDCB,4 | 
[V:2] F4G4 | 
[V:3] f4d4 | 
[V:4] D,C,D,2G,,4 | 
[V:1] A,4D4- | 
[V:2] F4D2F2- | 
[V:3] z8 | 
[V:4] D,8- | 
[V:1] D2E2F4 | 
[V:2] F2G2A2B2 | 
[V:3] f4d4 | 
[V:4] D,8 | 
[V:1] E4A4- | 
[V:2] c6A2- | 
[V:3] z8 | 
[V:4] A,4F,4 | 
[V:1] A4G4 | 
[V:2] A2F2G2_B2 | 
[V:3] f4d4 | 
[V:4] D,4z4 | 
[V:1] F4E2D2- | 
[V:2] A3Bc2F2- | 
[V:3] z8 | 
[V:4] D,4C,2D,2- | 
[V:1] DCA,2B,4 | 
[V:2] FGA4G2 | 
[V:3] f4d4 | 
[V:4] D,E,F,2G,4 | 
[V:1] A,2A4GF | 
[V:2] A4A2c2- | 
[V:3] f4d4 | 
[V:4] D,2F,4E,D, | 
[V:1] GFED^C3B, | 
[V:2] c2BAG4 | 
[V:3] z8 | 
[V:4] E,8 | 
[V:1] D4z4 | 
[V:2] A4_B4 | 
[V:3] f4d4 | 
[V:4] D,4G,,4 | 
[V:1] C4A,4 | 
[V:2] A4z4 | 
[V:3] z4f4 | 
[V:4] A,,2B,,C,D,2D,2- | 
[V:1] B,8 | 
[V:2] z8 | 
[V:3] d4z4 | 
[V:4] D,C,B,,A,,G,,2F,,2 | 
[V:1] (3A,4C4D4 | 
[V:2] (3:2:2E8F4 | 
[V:3] c4A4 | 
[V:4] (3:2:2A,,8D,4 | 
[V:1] (3E4D4F4 | 
[V:2] (3:2:2G4F8 | 
[V:3] z8 | 
[V:4] (3:2:2C,4D,8 | 
[V:1] (3:2:2E8F4 | 
[V:2] (3z4c4d4 | 
[V:3] c4A4 | 
[V:4] (3C,4A,,4D,4 | 
[V:1] (3:2:2G4A8 | 
[V:2] (3e4c4A4 | 
[V:3] z8 | 
[V:4] (3:2:2C,4F,8 | 
[V:1] (3:2:2G4E8 | 
[V:2] (3z4G4A4 | 
[V:3] c4A4 | 
[V:4] (3E,4C,4A,,4 | 
[V:1] (3:2:1E4D4(3:2:1C2 | 
[V:2] (3:2:2E4F8 | 
[V:3] z8 | 
[V:4] (3:2:2C,4D,8 | 
[V:1] (3E4C4A,4 | 
[V:2] (3:2:2E8F4 | 
[V:3] c4A4 | 
[V:4] (3A,,4C,4D,4 | 
[V:1] (3:2:2C4B,8 | 
[V:2] A4(3:2:2^G2^G4 | 
[V:3] z8 | 
[V:4] (3:2:2A,,4E,8 | 
[V:1] (3:2:1A,4C4(3:2:1E2 | 
[V:2] (3:2:1A4E4(3:2:1C2 | 
[V:3] c4A4 | 
[V:4] (3:2:2A,,8C,4- | 
[V:1] (3C2B, A,^G,4(3:2:1^F,2 | 
[V:2] (3:2:1E4D4(3:2:1C2 | 
[V:3] z8 | 
[V:4] (3:2:2C,4B,,8 | 
[V:1] (3:2:1A,4E4(3:2:1F2 | 
[V:2] (3:2:2E8z4 | 
[V:3] c4A4 | 
[V:4] (3:2:1A,,4C,4(3:2:1D,2 | 
[V:1] (3G4A4D4 | 
[V:2] (3e4c4d4 | 
[V:3] z8 | 
[V:4] (3E,4F,4D,4 | 
[V:1] (3:2:1G4c4(3:2:1B2 | 
[V:2] (3:2:1e4e4(3:2:1d2 | 
[V:3] c4A4 | 
[V:4] (3C,4A,,4C,4- | 
[V:1] A4(3^G2G2^F2 | 
[V:2] (3:2:2c4B8 | 
[V:3] z8 | 
[V:4] (3C,2D,2E,8 | 
[V:1] (3:2:2A8F4 | 
[V:2] (3A4c4d4 | 
[V:3] c4A4 | 
[V:4] (3:2:2A,,8D,4 | 
[V:1] (3G4A4F4 | 
[V:2] (3B4A4c4- | 
[V:3] z8 | 
[V:4] (3:2:1E,4F,4(3:2:1E,2 | 
[V:1] (3:2:1E4G4(3:2:1F2 | 
[V:2] (3c4c4F4 | 
[V:3] c4A4 | 
[V:4] (3:2:2C,8D,4 | 
[V:1] F4(3E2E2D2 | 
[V:2] (3:2:2A4G8 | 
[V:3] z8 | 
[V:4] (3:2:2F,4C,8 | 
[V:1] F8- | 
[V:2] (3:2:2F8D4 | 
[V:3] c4A4 | 
[V:4] (3:2:1z4F,4(3:2:1E,2 | 
[V:1] (3:2:2F4E8 | 
[V:2] (3F4G4A4 | 
[V:3] z4c4 | 
[V:4] (3D,4C,4A,,4 | 
[V:1] D4F4 | 
[V:2] F8 | 
[V:3] A4z4 | 
[V:4] D,8 | 
[V:1] E2E4DC | 
[V:2] G4z4 | 
[V:3] c4A4 | 
[V:4] C,6D,2 | 
[V:1] B,2G4FE | 
[V:2] e8 | 
[V:3] z4c4 | 
[V:4] E,4C,4 | 
[V:1] F4E2A2- | 
[V:2] d4e2c2 | 
[V:3] A4z4 | 
[V:4] D,4C,2F,2- | 
[V:1] A2G2F2E2 | 
[V:2] f2e2d4 | 
[V:3] c4A4 | 
[V:4] F,E,C,2D,2A,,2 | 
[V:1] F2EDE2C2- | 
[V:2] A4G2A2 | 
[V:3] z4c4 | 
[V:4] D,4C,4 | 
[V:1] CB,A,4^G,2 | 
[V:2] F2E4D2 | 
[V:3] A4z4 | 
[V:4] D,2C,2B,,4 | 
[V:1] A,4z4 | 
[V:2] E8 | 
[V:3] c4A4 | 
[V:4] A,,8 | 
[V:1] !fermata!A8 | 
[V:2] !fermata!e8 | 
[V:3] !fermata!c8 | 
[V:4] !fermata!A,,8 | 
[V:1] !fermata!G8 | 
[V:2] !fermata!e8 | 
[V:3] !fermata!c8 | 
[V:4] !fermata!C,8 | 
[V:1] !fermata!F8 | 
[V:2] !fermata!d8 | 
[V:3] !fermata!A8 | 
[V:4] !fermata!D,8 | 
[V:1] !fermata!A8 | 
[V:2] !fermata!e8 | 
[V:3] !fermata!c8 | 
[V:4] !fermata!A,,8 | 
[V:1] ^G8- | 
[V:2] e8- | 
[V:3] !fermata!B8- | 
[V:4] E,8- | 
[V:1] !fermata!G8 | 
[V:2] !fermata!e8 | 
[V:3] !fermata!B8 | 
[V:4] !fermata!E,8 | 
[V:1] A8 |]  
[V:2] [c8e8] |]  
[V:3] A8 |]  
[V:4] A,,8 |]  



